public/Icons/vk.svg

<svg width="24" height="24" viewBox="0 0 24 24" fill="none" xmlns="http://www.w3.org/2000/svg">
<path fill-rule="evenodd" clip-rule="evenodd" d="M4 0C1.79086 0 0 1.79086 0 4V20C0 22.2091 1.79086 24 4 24H20C22.2091 24 24 22.2091 24 20V4C24 1.79086 22.2091 0 20 0H4ZM18.8549 7.91625C19.3471 7.91625 19.4583 8.1725 19.3471 8.525V8.52375C19.1738 9.33197 17.7327 11.4737 17.2862 12.1373C17.2013 12.2635 17.1523 12.3363 17.1549 12.3363C16.9802 12.6244 16.9168 12.7525 17.1549 13.0728C17.2411 13.1915 17.4242 13.3726 17.6334 13.5795C17.8478 13.7917 18.0897 14.031 18.2827 14.2578C18.9818 15.0584 19.5221 15.7309 19.6649 16.1953C19.7921 16.6597 19.5696 16.9 19.093 16.9H17.4568C17.023 16.9 16.7995 16.6489 16.3231 16.1139C16.1189 15.8845 15.8682 15.6029 15.5346 15.2666C14.5655 14.3216 14.1364 14.1938 13.8983 14.1938C13.5646 14.1938 13.4693 14.2737 13.4693 14.7541V16.2434C13.4693 16.6437 13.3424 16.8841 12.2936 16.8841C10.5621 16.8841 8.63988 15.8259 7.28957 13.8572C5.25613 10.9747 4.7002 8.79688 4.7002 8.36438C4.7002 8.12406 4.77957 7.9 5.25613 7.9H6.90832C7.32145 7.9 7.48145 8.07625 7.63895 8.5425C8.44895 10.8966 9.79926 12.9625 10.3552 12.9625C10.5633 12.9625 10.6571 12.8659 10.6571 12.3375V9.90187C10.6179 9.21 10.379 8.9085 10.2018 8.68493C10.0919 8.54628 10.0058 8.4376 10.0058 8.28438C10.0058 8.09219 10.1646 7.9 10.4189 7.9H12.9927C13.3424 7.9 13.4693 8.09219 13.4693 8.50844V11.7919C13.4693 12.1441 13.6124 12.2722 13.7236 12.2722C13.9302 12.2722 14.1049 12.1441 14.4861 11.7597C15.6618 10.4306 16.5036 8.38062 16.5036 8.38062C16.6149 8.14062 16.8055 7.91625 17.2183 7.91625H18.8549Z" fill="#F8F7F3"/>
</svg>

<svg width="24" height="24" fill="none" xmlns="http://www.w3.org/2000/svg"><path fill-rule="evenodd" clip-rule="evenodd" d="M4 0a4 4 0 0 0-4 4v16a4 4 0 0 0 4 4h16a4 4 0 0 0 4-4V4a4 4 0 0 0-4-4H4Zm14.855 7.916c.492 0 .603.256.492.609v-.001c-.173.808-1.614 2.95-2.06 3.613-.086.127-.135.2-.132.2-.175.287-.238.415 0 .736.086.118.27.3.478.506.215.213.457.452.65.679.699.8 1.24 1.473 1.382 1.937.127.465-.095.705-.572.705h-1.636c-.434 0-.658-.251-1.134-.786-.204-.23-.455-.511-.788-.847-.97-.945-1.399-1.073-1.637-1.073-.333 0-.429.08-.429.56v1.49c0 .4-.127.64-1.175.64-1.732 0-3.654-1.058-5.004-3.027-2.034-2.882-2.59-5.06-2.59-5.493 0-.24.08-.464.556-.464h1.652c.413 0 .573.176.731.643.81 2.354 2.16 4.42 2.716 4.42.208 0 .302-.097.302-.625V9.902c-.04-.692-.278-.993-.455-1.217-.11-.139-.196-.247-.196-.4 0-.193.159-.385.413-.385h2.574c.35 0 .476.192.476.608v3.284c0 .352.143.48.255.48.206 0 .38-.128.762-.512 1.176-1.33 2.018-3.38 2.018-3.38.11-.24.301-.464.714-.464h1.637Z" fill="#F8F7F3"/></svg>
